icons/svg/subway/subway_sanpaulo.svg

<?xml version="1.0" encoding="UTF-8" standalone="no"?>
<svg
   xmlns:dc="http://purl.org/dc/elements/1.1/"
   xmlns:cc="http://creativecommons.org/ns#"
   xmlns:rdf="http://www.w3.org/1999/02/22-rdf-syntax-ns#"
   xmlns:svg="http://www.w3.org/2000/svg"
   xmlns="http://www.w3.org/2000/svg"
   xmlns:sodipodi="http://sodipodi.sourceforge.net/DTD/sodipodi-0.dtd"
   xmlns:inkscape="http://www.inkscape.org/namespaces/inkscape"
   width="16"
   height="16"
   id="svg2"
   version="1.1"
   inkscape:version="0.91 r13725"
   sodipodi:docname="subway_sanpaulo.svg">
  <defs
     id="defs13">
    <linearGradient
       gradientTransform="matrix(0.08596979,0,0,0.08596979,0.67480439,1.9432845)"
       x1="87.101639"
       y1="121.69753"
       x2="87.260849"
       y2="1.2385538"
       id="l1"
       gradientUnits="userSpaceOnUse">
      <stop
         style="stop-color:#e92203;stop-opacity:1"
         offset="0"
         id="stop5" />
      <stop
         style="stop-color:#ff0000;stop-opacity:0.64628822"
         offset="1"
         id="stop7" />
    </linearGradient>
    <linearGradient
       gradientTransform="matrix(0.08400469,0,0,0.08400469,0.8422306,2.0814238)"
       x1="87.101639"
       y1="121.69753"
       x2="87.260849"
       y2="1.2385538"
       id="l1-2"
       gradientUnits="userSpaceOnUse">
      <stop
         style="stop-color:#e92203;stop-opacity:1"
         offset="0"
         id="stop5-8" />
      <stop
         style="stop-color:#ff0000;stop-opacity:0.64628822"
         offset="1"
         id="stop7-4" />
    </linearGradient>
    <clipPath
       style="clip-rule:evenodd"
       id="clip">
      <path
         inkscape:connector-curvature="0"
         d="m 0,62 142,0 0,1 a 19,17 0 0 1 19,17 l 0,144 -36,0 0,-144 A 45,43 0 0 0 80,37 l 0,26 a 19,17 0 0 1 19,17 l 0,144 -37,0 0,-144 A 45,43 0 0 0 17,37 l 0,26 a 19,17 0 0 1 19,17 l 0,144 -36,0"
         id="path9" />
    </clipPath>
    <clipPath
       style="clip-rule:evenodd"
       id="clip-3">
      <path
         inkscape:connector-curvature="0"
         d="m 0,62 142,0 0,1 c 10.49341,0 19,7.611159 19,17 l 0,144 -36,0 0,-144 C 125,56.251756 104.85281,37 80,37 l 0,26 c 10.49341,0 19,7.611159 19,17 l 0,144 -37,0 0,-144 C 62,56.251756 41.852814,37 17,37 l -19.4659076,6.047445 c 10.4934102,0 39.5295186,70.389145 39.4392026,79.777555 L 36,224 0,224"
         id="path9-6"
         sodipodi:nodetypes="cccsccsccsccsccscc" />
    </clipPath>
    <clipPath
       clipPathUnits="userSpaceOnUse"
       id="clipPath4241">
      <path
         style="color:#000000;font-style:normal;font-variant:normal;font-weight:normal;font-stretch:normal;font-size:medium;line-height:normal;font-family:sans-serif;text-indent:0;text-align:start;text-decoration:none;text-decoration-line:none;text-decoration-style:solid;text-decoration-color:#000000;letter-spacing:normal;word-spacing:normal;text-transform:none;direction:ltr;block-progression:tb;writing-mode:lr-tb;baseline-shift:baseline;text-anchor:start;white-space:normal;clip-rule:nonzero;display:inline;overflow:visible;visibility:visible;opacity:1;isolation:auto;mix-blend-mode:normal;color-interpolation:sRGB;color-interpolation-filters:linearRGB;solid-color:#000000;solid-opacity:1;fill:#f78f1e;fill-opacity:1;fill-rule:nonzero;stroke:none;stroke-width:1.1890316;stroke-linecap:butt;stroke-linejoin:miter;stroke-miterlimit:4;stroke-dasharray:none;stroke-dashoffset:0;stroke-opacity:1;color-rendering:auto;image-rendering:auto;shape-rendering:auto;text-rendering:auto;enable-background:accumulate"
         d="m 14.951172,5.6171875 0,1.1894531 1.189724,4.0473644 c 0.22222,0.755979 1.557608,-1.2390936 2.119845,-0.687028 l -1.216421,3.99855 5.104118,-1.349121 -2.897294,-5.4803727 C 18.582537,6.0713293 20.39326,2.308458 19.17089,3.0516451 Z"
         id="path4243"
         inkscape:connector-curvature="0"
         sodipodi:nodetypes="ccssccssc" />
    </clipPath>
    <clipPath
       style="clip-rule:evenodd"
       id="clip-5">
      <path
         inkscape:connector-curvature="0"
         d="m 0,62 142,0 0,1 a 19,17 0 0 1 19,17 l 0,144 -36,0 0,-144 A 45,43 0 0 0 80,37 l 0,26 a 19,17 0 0 1 19,17 l 0,144 -37,0 0,-144 A 45,43 0 0 0 17,37 l 0,26 a 19,17 0 0 1 19,17 l 0,144 -36,0"
         id="path9-62" />
    </clipPath>
  </defs>
  <sodipodi:namedview
     pagecolor="#ffffff"
     bordercolor="#666666"
     borderopacity="1"
     objecttolerance="10"
     gridtolerance="10"
     guidetolerance="10"
     inkscape:pageopacity="0"
     inkscape:pageshadow="2"
     inkscape:window-width="1920"
     inkscape:window-height="1006"
     id="namedview11"
     showgrid="true"
     inkscape:zoom="31.971557"
     inkscape:cx="9.9350456"
     inkscape:cy="11.233811"
     inkscape:window-x="1920"
     inkscape:window-y="0"
     inkscape:window-maximized="1"
     inkscape:current-layer="svg2"
     showguides="false"
     inkscape:snap-global="false">
    <sodipodi:guide
       position="0,0"
       orientation="0,580"
       id="guide2989" />
    <sodipodi:guide
       position="580,0"
       orientation="-580,0"
       id="guide2991" />
    <sodipodi:guide
       position="580,580"
       orientation="0,-580"
       id="guide2993" />
    <sodipodi:guide
       position="0,580"
       orientation="580,0"
       id="guide2995" />
    <sodipodi:guide
       position="0,0"
       orientation="0,580"
       id="guide2997" />
    <sodipodi:guide
       position="580,0"
       orientation="-580,0"
       id="guide2999" />
    <sodipodi:guide
       position="580,580"
       orientation="0,-580"
       id="guide3001" />
    <sodipodi:guide
       position="0,580"
       orientation="580,0"
       id="guide3003" />
    <inkscape:grid
       type="xygrid"
       id="grid3013"
       empspacing="5"
       visible="true"
       enabled="true"
       snapvisiblegridlinesonly="true" />
  </sodipodi:namedview>
  <metadata
     id="metadata2975">image/svg+xmlen<rdf:RDF>
  <cc:Work
     rdf:about="">
    <dc:format>image/svg+xml</dc:format>
    <dc:type
       rdf:resource="http://purl.org/dc/dcmitype/StillImage" />
    <dc:title></dc:title>
  </cc:Work>
</rdf:RDF>
</metadata>
  <path
     sodipodi:type="inkscape:offset"
     inkscape:radius="0.93833405"
     inkscape:original="M 3.9570312 3.9570312 L 3.9570312 12.042969 L 12.042969 12.042969 L 12.042969 3.9570312 L 3.9570312 3.9570312 z "
     style="fill:#fefefe;fill-opacity:1;fill-rule:evenodd;stroke:none"
     id="path4300"
     d="m 3.9570312,3.0195312 a 0.93842788,0.93842788 0 0 0 -0.9375,0.9375 l 0,8.0859378 a 0.93842788,0.93842788 0 0 0 0.9375,0.9375 l 8.0859378,0 a 0.93842788,0.93842788 0 0 0 0.9375,-0.9375 l 0,-8.0859378 a 0.93842788,0.93842788 0 0 0 -0.9375,-0.9375 l -8.0859378,0 z" />
  <path
     style="fill:#1c5ca2;fill-opacity:1;fill-rule:evenodd;stroke:none"
     d="m 3.9565849,3.9566685 8.0868301,0 0,8.0866635 -8.0868301,0 0,-8.0866635 z"
     id="path16"
     inkscape:connector-curvature="0" />
  <path
     style="fill:#fefefe;fill-opacity:1;fill-rule:evenodd;stroke:none"
     d="m 7.9919603,4.5967672 -2.7722187,2.7722188 2.3043328,2.4688132 0,-3.6764465 -2.3043328,2.4688132 2.7722187,2.7727291 2.7724987,-2.7727291 -2.3041613,-2.4688132 0,3.6764465 L 10.764459,7.368986 7.9919603,4.5967672 Z"
     id="path18"
     inkscape:connector-curvature="0" />
</svg>

<svg width="16" height="16" viewBox="0 0 16 16" fill="none" xmlns="http://www.w3.org/2000/svg">
<path fill-rule="evenodd" clip-rule="evenodd" d="M3.95703 3.01953C3.70847 3.01978 3.47015 3.11863 3.29439 3.29439C3.11863 3.47015 3.01978 3.70847 3.01953 3.95703V12.043C3.01978 12.2915 3.11863 12.5298 3.29439 12.7056C3.47015 12.8814 3.70847 12.9802 3.95703 12.9805H12.043C12.2915 12.9802 12.5298 12.8814 12.7056 12.7056C12.8814 12.5298 12.9802 12.2915 12.9805 12.043V3.95703C12.9802 3.70847 12.8814 3.47015 12.7056 3.29439C12.5298 3.11863 12.2915 3.01978 12.043 3.01953H3.95703V3.01953Z" fill="#FEFEFE"/>
<path fill-rule="evenodd" clip-rule="evenodd" d="M3.9566 3.95667H12.0434V12.0433H3.9566V3.95667V3.95667Z" fill="#1C5CA2"/>
<path fill-rule="evenodd" clip-rule="evenodd" d="M7.99195 4.59677L5.21973 7.36899L7.52406 9.8378V6.16136L5.21973 8.63017L7.99195 11.4029L10.7644 8.63017L8.46028 6.16136V9.8378L10.7644 7.36899L7.99195 4.59677Z" fill="#FEFEFE"/>
</svg>
